X: 1
T: Mouse In The Kitchen
M: 6/8
L: 1/8
R: jig
K: Amaj
|: c3 cde | dcA F2A | E3 ABc | B3 BAB |
c3 cde | dcA F2a | afe fec | cBe Adc :|
|: B3 BAB | c3 cBA | B3 BAB | cea zdc |
B3 BAB | c3 cBA | afe fec | cBe Adc :|
